X:5790
T:Snoa
A:Jmtland
C:e. Salomon W. Zeidlitz
D:Lasse Srlin, Jamtaleikan (Tongng AWCD-30)
L:1/16
M:2/4
O:Sweden
R:Snoa
R:Polka
Z:Carol Turner
%%TUNEURL: http://www.leeds.ac.uk/music/Info/RRTuneBk/gettune/00000c9c.html
%%ID:00000c9c
K:D
A2f2 f2ef | agfg e3c | ABcd e2fe | d2BG B2A2 | \
A2f2 f2ef | agfg e3c |
ABcd e2fe | d2f2 d4 :: \
A2FA d2d2 | B2GB e3d  |
c2b2 a3g    | fgfe dedB |\
A2FA d2d2 | B2GB e3d  | \
c2b2 a3c    | d2f2 d4:|
